img/icon-search.svg

<svg height="17" viewBox="0 0 17 17" width="17" xmlns="http://www.w3.org/2000/svg"><path d="m17 15.586-3.542-3.542c1.0000739-1.3036883 1.5420882-2.90090812 1.542-4.544 0-4.14213562-3.3578644-7.5-7.5-7.5-4.14213562 0-7.5 3.35786438-7.5 7.5 0 4.1421356 3.35786438 7.5 7.5 7.5 1.71 0 3.282-.579 4.544-1.542l3.542 3.542zm-15-8.086c0-3.033 2.467-5.5 5.5-5.5 3.032 0 5.5 2.467 5.5 5.5 0 3.032-2.468 5.5-5.5 5.5-3.03619535-.0033068-5.4966932-2.4638047-5.5-5.5z" fill="#fff"/></svg>

<?xml version="1.0" encoding="UTF-8"?>
<svg width="17px" height="17px" viewBox="0 0 17 17" version="1.1" xmlns="http://www.w3.org/2000/svg" xmlns:xlink="http://www.w3.org/1999/xlink">
    <!-- Generator: Sketch 52.6 (67491) - http://www.bohemiancoding.com/sketch -->
    <title>icon-search</title>
    <desc>Created with Sketch.</desc>
    <g id="Styleguide" stroke="none" stroke-width="1" fill="none" fill-rule="evenodd">
        <g transform="translate(-407.000000, -84.000000)" fill="#FFFFFF" id="top-menu">
            <g transform="translate(-55.000000, 0.000000)">
                <g id="icon-search" transform="translate(462.000000, 84.000000)">
                    <g id="Shape">
                        <path d="M17,15.586 L13.458,12.044 C14.4580739,10.7403117 15.0000882,9.14309188 15,7.5 C15,3.35786438 11.6421356,2.53632657e-16 7.5,0 C3.35786438,-2.53632657e-16 5.07265313e-16,3.35786438 0,7.5 C-5.07265313e-16,11.6421356 3.35786438,15 7.5,15 C9.21,15 10.782,14.421 12.044,13.458 L15.586,17 L17,15.586 Z M2,7.5 C2,4.467 4.467,2 7.5,2 C10.532,2 13,4.467 13,7.5 C13,10.532 10.532,13 7.5,13 C4.46380465,12.9966932 2.0033068,10.5361953 2,7.5 Z" fill-rule="nonzero"></path>
                    </g>
                </g>
            </g>
        </g>
    </g>
</svg>
